X:1
T:Lammets Folk, 87.87 D
T:Attributed to Anders Carl Rutström (1721-1772) 
T:Lammets Folk, 87.87 D
T:Public Domain
C:Attributed to Anders Carl Rutstr&#246;m (1721-1772)
Z:Public Domain
%%score ( 1 2 ) ( 3 4 )
L:1/8
M:4/4
K:F
V:1 treble 
V:2 treble 
V:3 bass 
V:4 bass 
V:1
 F2 [FA]2 [Fc]2 [Fd]2 | [GB]2 [Gc]2 [FA]2 [Fc]2 | F2 [FA]2 [DG]2 [DB]2 | [CE]2 [CG]2 [CF]4 | %4
 F2 [FA]2 [Fc]2 [Fd]2 | [GB]2 [Gc]2 [FA]2 [Fc]2 | F2 [FA]2 [DG]2 [DB]2 | [CE]2 [CG]2 [CF]4 | %8
 [EG]3 [DF] [CE]2 [EG]2 | [GB]2 [FA]2 [EG]2 F2 | [CB]3 [FA] [EG]2 [Gc]2 | [F=B]2 [Fd]2 [Ec]4 | %12
 F2 [FA]2 [Fc]2 [Fd]2 | [GB]2 [Gc]2 [FA]2 [Fc]2 | F2 [_EA]2 [DG]2 [DB]2 | [CE]2 [CG]2 [CF]4 |] %16
V:2
 F2 x6 | x8 | F2 x6 | x8 | F2 x6 | x8 | F2 x6 | x8 | x8 | x6 F2 | x8 | x8 | F2 x6 | x8 | F2 x6 | %15
 x8 |] %16
V:3
 [F,A,]2 [F,C]2 [A,C]2 B,2 | [G,D]2 [E,C]2 [F,C]2 [F,A,]2 | [D,A,]2 [C,F,]2 [B,,G,]2 [G,,G,]2 | %3
 [C,G,]2 [C,B,]2 [F,A,]4 | [F,A,]2 [F,C]2 [A,C]2 B,2 | [G,D]2 [E,C]2 [F,C]2 [F,A,]2 | %6
 [D,A,]2 [C,F,]2 [B,,G,]2 [G,,G,]2 | [C,G,]2 [C,B,]2 [F,A,]4 | [C,B,]3 [C,A,] [C,G,]2 [C,C]2 | %9
 [E,C]2 [F,C]2 [C,B,]2 [D,A,]2 | [E,C]3 [F,C] [G,C]2 [G,E]2 | [G,D]2 [G,=B,]2 [C,C]4 | %12
 [F,A,]2 [F,C]2 [A,C]2 B,2 | [G,D]2 [E,C]2 [F,C]2 [F,A,]2 | [D,A,]2 [C,^F,]2 [B,,G,]2 [G,,G,]2 | %15
 [C,G,]2 [C,B,]2 [F,A,]4 |] %16
V:4
 x6 B,2 | x8 | x8 | x8 | x6 B,2 | x8 | x8 | x8 | x8 | x8 | x8 | x8 | x6 B,2 | x8 | x8 | x8 |] %16

